!!!OTL: Wuyi laodongjie
!!!ARE: Asia, China,ÿGuangdong Haifeng Lufeng
!! II, 373, 2)
!!!SCT: C1897
!!!YEM: Copyright 1995, estate of Helmut Schaffrath.
**kern
*ICvox
*Ivox
*M2/4
*k[]
*C:
{8cc
8e
4g
=1
8cc
16dd
16ee
4cc
=2
8cc
16dd
16ee
8dd
8b
=3
8a
8e
4g}
=4
{8g
8cc
8a
8g
=5
8e
8a
4g
=6
8d
8g
8g
8d
=7
8.e
16d
4c}
=8
{16e
16g
16a
16cc
4g
=9
8d
8g
8g
8d
=10
8.e
16d
4c}
=11
{16cc
16dd
8ee
8ee
8a
=12
8cc
16dd
16ee
4cc}
=13
{16cc
16dd
8ee
8ee
8a
=14
8cc
16dd
16ee
4cc}
==
!!!AGN: Xiaodiao, Chaozhou xiaodiao, Jianjianhua
!!!AMT: simple duple
!!!AIN: vox
!!!EED: Helmut Schaffrath
!!!EEV: 1.0
*-
